X:1
T:[ID 11-15b]
T:[ID 11-15b]
T:Bezeichnung standardisiert: Allegro Allegro
T:Urheber unbekannt Datum in der hier transkribierten schriftlichen Quelle: vermutlich um 1800
C:Urheber unbekannt
C:Datum in der hier transkribierten schriftlichen Quelle: vermutlich um 1800
L:1/8
M:2/4
K:G
V:1 treble 
V:1
 g2 d2 | e3 f | g d2 c |{c} B2 z A | B>A B^c | de/f/ ge | f/e/f/g/ af |{g} fe z e | f a2 e/g/ | %9
 f a2 e/g/ | fb a/g/f/e/ | f2 Te2 | d2 z2 :: g2 de | =f3 a | a g2 =f | f2 eg | g2 =fe | e2 de | %19
 e d2 c | c2 Bd/B/ | e A2 G |{G} F2 z A | B d2 .A/.c/ | B d2 .A/.c/ | Bc/A/ Bc/A/ | Be d/c/B/A/ | %27
 B2 TA2 | G2 z2 :| %29

